X:290
T: John Fleming's
T: Kiss in the Furze
T: Port She\'ain Pl\'eamonn
S: B.Breathnach: "Ceol Rince na hEireann" II/66
Z: B.Black
N: Parts not repeated
L: 1/8
M: 12/8
R: slide
Q: 375
K: G
G2B BAB G2B d2B|G2B BAB F2G AFD|
G2B BAB G2B d2B|e2c A2G F2G AFD||
B2E EEE B2E G2A|B2E EEE AFD G2A|
B2E EEE c3 B3|A3 G3 F2G AFD||

